icons/svg/slack.svg

﻿<?xml version="1.0" encoding="utf-8"?>
<!DOCTYPE svg PUBLIC "-//W3C//DTD SVG 1.1//EN" "http://www.w3.org/Graphics/SVG/1.1/DTD/svg11.dtd">
<svg xmlns="http://www.w3.org/2000/svg" xmlns:xlink="http://www.w3.org/1999/xlink" version="1.1" baseProfile="full" width="24" height="24" viewBox="0 0 24.00 24.00" enable-background="new 0 0 24.00 24.00" xml:space="preserve">
	<path fill="#000000" fill-opacity="1" stroke-linejoin="round" d="M 10.2326,11.1611L 12.9056,10.2659L 13.7674,12.8388L 11.0944,13.734L 10.2326,11.1611 Z M 17.6888,13.7128C 18.2319,13.5309 18.5247,12.9432 18.3428,12.4001C 18.1611,11.8571 17.5734,11.5644 17.0302,11.7461L 15.734,12.1802L 14.8722,9.60732L 16.1684,9.17321C 16.7115,8.9913 17.0043,8.40363 16.8224,7.86054C 16.6406,7.31755 16.0531,7.02472 15.5098,7.20654L 14.2135,7.64068L 13.7643,6.29942C 13.5825,5.75634 12.9947,5.46355 12.4517,5.64542C 11.9087,5.82727 11.6158,6.415 11.7977,6.95808L 12.2469,8.29932L 9.57389,9.19453L 9.12465,7.85326C 8.94283,7.31027 8.35525,7.01748 7.81209,7.19925C 7.26899,7.38116 6.97615,7.96884 7.15807,8.51192L 7.60731,9.85314L 6.31122,10.2872C 5.76813,10.4691 5.47529,11.0568 5.65721,11.5999C 5.79951,12.0248 6.19028,12.2965 6.61373,12.3075L 6.96978,12.2539L 8.26601,11.8198L 9.12776,14.3927L 7.83151,14.8268C 7.28842,15.0087 6.99559,15.5964 7.17751,16.1395C 7.3198,16.5644 7.71058,16.8361 8.13401,16.8471L 8.49007,16.7935L 9.78646,16.3593L 10.2357,17.7006C 10.378,18.1255 10.7688,18.3972 11.1922,18.4082L 11.5483,18.3546C 12.0914,18.1727 12.3842,17.585 12.2023,17.0419L 11.7531,15.7007L 14.4261,14.8055L 14.8753,16.1468C 15.0176,16.5717 15.4083,16.8434 15.8318,16.8544L 16.1879,16.8008C 16.7309,16.6189 17.0238,16.0312 16.8419,15.4881L 16.3926,14.1469L 17.6888,13.7128 Z M 21.1657,9.25016C 23.2281,16.1244 21.6241,19.1033 14.7499,21.1657C 7.87557,23.2281 4.89669,21.6241 2.8343,14.7498C 0.771927,7.87557 2.37589,4.89667 9.25018,2.83429C 16.1244,0.771912 19.1034,2.37588 21.1657,9.25016 Z "/>
</svg>

<svg xmlns="http://www.w3.org/2000/svg" version="1.1" baseProfile="full" width="24" height="24" viewBox="0 0 24.00 24.00" xml:space="preserve"><path fill="#000" fill-opacity="1" stroke-linejoin="round" d="M10.233 11.16l2.673-.894.86 2.573-2.672.894-.86-2.573zm7.456 2.553c.542-.182.835-.77.653-1.313-.182-.543-.77-.836-1.313-.654l-1.296.434-.862-2.573 1.296-.434c.544-.182.836-.77.654-1.312-.18-.542-.77-.835-1.312-.653l-1.296.434-.45-1.34c-.18-.544-.77-.836-1.312-.655-.543.182-.836.77-.654 1.313l.45 1.34-2.674.897-.45-1.342c-.18-.543-.77-.836-1.312-.654-.543.18-.836.77-.654 1.312l.45 1.34-1.297.435c-.542.182-.835.77-.653 1.313.143.425.533.697.957.707l.356-.053 1.296-.434.862 2.573-1.296.434c-.544.182-.836.77-.654 1.313.142.424.533.696.956.707l.356-.053 1.296-.435.45 1.34c.142.425.533.697.956.708l.356-.053c.543-.182.836-.77.654-1.313l-.45-1.34 2.674-.896.45 1.34c.142.426.532.697.956.708l.356-.053c.543-.18.836-.77.654-1.312l-.45-1.34 1.297-.435zm3.476-4.463c2.062 6.874.458 9.853-6.416 11.916-6.874 2.062-9.853.458-11.916-6.416C.772 7.876 2.376 4.897 9.25 2.834c6.874-2.062 9.853-.458 11.916 6.416z"/></svg>
